X: 11096
T: Dudley Gallagher's Fancy
R: reel
M: 4/4
K: Adorian
|:EAAc (3Bcd (3efg|d2 BG dGBG|EAAc (3Bcd ef|1 gfgB BAAG:|2 gfgB BAAe||
|:a2 ea caef|g2 Bg dgBg|1 a2 ea caef|gfgB BAAe:|2 afge fdec|dBgB BAAG||

